X:66
T: Die dienende Schwester
N: Q0075U
O: Mitteleuropa, Deutschland (DDR) , Brandenburg
R: Ballade, Adelige als Dienstmagd, Tod; Kinder - Spiel, Tanz
M: 3/4
L: 1/16
K: F
C4 | F2C2F4c4 | A2c2A4
F4 | GGB2G4E4 | F4A2G2F4 |
G4 | A4G2G2F2A2c2B2 | A8G8 | F8

@@@ Tune index: 1121
